X: 2
T: Blow, Blow,  thou winter wind (I)
C: Arne
K: E
L: 1/4
M: 4/4
B | "E" A/G/F/E/ "A" c E | "B7" E D z E | "B7" F/G/ A/F/ B, A |
"E" A G2 F | "Am" E > E E E | "F#" ^A3 A | "B7" B/F/ "E" G/E/ "B7" D/F/ "F#" E/C/ | "B" z4 |

%% transpose -4

